;FLAVOR:Marlin
;TIME:4796
;Filament used: 2.98307m
;Layer height: 0.2
;MINX:82.894
;MINY:77.898
;MINZ:0.2
;MAXX:152.107
;MAXY:159.803
;MAXZ:10
;Generated with Cura_SteamEngine 4.12.1
M140 S60
M105
M190 S60
M104 S200
M105
M109 S200
M82 ;absolute extrusion mode
M201 X500.00 Y500.00 Z100.00 E5000.00 ;Setup machine max acceleration
M203 X500.00 Y500.00 Z10.00 E50.00 ;Setup machine max feedrate
M204 P500.00 R1000.00 T500.00 ;Setup Print/Retract/Travel acceleration
M205 X8.00 Y8.00 Z0.40 E5.00 ;Setup Jerk
M220 S100 ;Reset Feedrate
M221 S100 ;Reset Flowrate

G28 ;Home

G92 E0 ;Reset Extruder
G1 Z2.0 F3000 ;Move Z Axis up
G1 X10.1 Y20 Z0.28 F5000.0 ;Move to start position
G1 X10.1 Y200.0 Z0.28 F1500.0 E15 ;Draw the first line
G1 X10.4 Y200.0 Z0.28 F5000.0 ;Move to side a little
G1 X10.4 Y20 Z0.28 F1500.0 E30 ;Draw the second line
G92 E0 ;Reset Extruder
G1 Z2.0 F3000 ;Move Z Axis up

G92 E0
G92 E0
G1 F1500 E-6.5
;LAYER_COUNT:50
;LAYER:0
M107
G0 F6000 X108.815 Y123.349 Z0.2
;TYPE:SKIRT
G1 F1500 E0
G1 F1200 X109.537 Y122.75 E0.0312
G1 X110.307 Y122.215 E0.06239
G1 X111.129 Y121.743 E0.09391
G1 X111.264 Y121.673 E0.09897
G1 X112.114 Y121.277 E0.13016
G1 X113.265 Y120.873 E0.17073
G1 X113.61 Y120.773 E0.18268
G1 X114.521 Y120.55 E0.21387
G1 X115.447 Y120.406 E0.24504
G1 X116.048 Y120.356 E0.2651
G1 X116.347 Y120.339 E0.27506
G1 X116.679 Y120.325 E0.28611
G1 X117.174 Y120.313 E0.30258
G1 X118.389 Y120.298 E0.343
G1 X118.686 Y120.298 E0.35288
G1 X119.231 Y120.306 E0.371
G1 X120.168 Y120.36 E0.40222
G1 X121.096 Y120.493 E0.4334
G1 X122.01 Y120.705 E0.46461
G1 X122.902 Y120.994 E0.49579
G1 X123.758 Y121.354 E0.52668
G1 X124 Y121.468 E0.53558
G1 X124.273 Y121.601 E0.54568
G1 X124.463 Y121.697 E0.55276
G1 X125.281 Y122.155 E0.58394
G1 X126.057 Y122.682 E0.61514
G1 X126.786 Y123.272 E0.64633
G1 X127.462 Y123.923 E0.67755
G1 X128.079 Y124.628 E0.70871
G1 X128.467 Y125.14 E0.73007
G1 X128.6 Y125.327 E0.73771
G1 X130.122 Y127.406 E0.8234
G1 X131.649 Y129.374 E0.90625
G1 X133.271 Y131.344 E0.99112
G1 X134.898 Y133.209 E1.07344
G1 X136.615 Y135.073 E1.15773
G1 X138.823 Y137.322 E1.26256
G1 X139.005 Y137.502 E1.27107
G1 X139.642 Y138.19 E1.30226
G1 X140.218 Y138.931 E1.33347
G1 X140.729 Y139.717 E1.36466
G1 X141.171 Y140.544 E1.39584
G1 X141.542 Y141.406 E1.42706
G1 X141.837 Y142.296 E1.45824
G1 X142.055 Y143.208 E1.48943
G1 X142.195 Y144.136 E1.52064
G1 X142.252 Y144.962 E1.54818
G1 X142.26 Y145.214 E1.55657
G1 X142.266 Y145.585 E1.56891
G1 X142.26 Y148.214 E1.65635
G1 X142.249 Y148.948 E1.68077
G1 X142.195 Y149.884 E1.71195
G1 X142.061 Y150.812 E1.74313
G1 X141.849 Y151.726 E1.77434
G1 X141.56 Y152.618 E1.80553
G1 X141.196 Y153.482 E1.83671
G1 X140.759 Y154.313 E1.86794
G1 X140.254 Y155.102 E1.8991
G1 X139.683 Y155.846 E1.93029
G1 X139.05 Y156.539 E1.96151
G1 X138.361 Y157.175 E1.99269
G1 X137.62 Y157.751 E2.02391
G1 X136.833 Y158.261 E2.0551
G1 X136.006 Y158.702 E2.08627
G1 X135.144 Y159.071 E2.11746
G1 X134.253 Y159.365 E2.14867
G1 X133.341 Y159.582 E2.17985
G1 X132.413 Y159.721 E2.21106
G1 X131.473 Y159.781 E2.24238
G1 X130.485 Y159.801 E2.27525
G1 X130.262 Y159.803 E2.28267
G1 X104.3 Y159.802 E3.14617
G1 X103.602 Y159.792 E3.16939
G1 X102.666 Y159.738 E3.20057
G1 X101.738 Y159.606 E3.23175
G1 X100.824 Y159.394 E3.26295
G1 X99.932 Y159.105 E3.29414
G1 X99.067 Y158.742 E3.32534
G1 X98.237 Y158.306 E3.35652
G1 X97.446 Y157.801 E3.38774
G1 X96.702 Y157.23 E3.41893
G1 X96.009 Y156.598 E3.45012
G1 X95.372 Y155.91 E3.48131
G1 X94.797 Y155.169 E3.51251
G1 X94.286 Y154.383 E3.54369
G1 X93.844 Y153.555 E3.5749
G1 X93.475 Y152.693 E3.60609
G1 X93.18 Y151.803 E3.63728
G1 X92.962 Y150.891 E3.66846
G1 X92.822 Y149.963 E3.69968
G1 X92.764 Y149.085 E3.72894
G1 X92.756 Y148.784 E3.73896
G1 X92.752 Y148.496 E3.74854
G1 X92.752 Y145.827 E3.83731
G1 X92.76 Y145.176 E3.85896
G1 X92.811 Y144.239 E3.89018
G1 X92.942 Y143.311 E3.92135
G1 X93.152 Y142.397 E3.95254
G1 X93.439 Y141.504 E3.98374
G1 X93.801 Y140.638 E4.01495
G1 X94.235 Y139.807 E4.04614
G1 X94.738 Y139.016 E4.07731
G1 X95.307 Y138.27 E4.10852
G1 X96.112 Y137.403 E4.14787
G1 X96.67 Y136.866 E4.17363
G1 X97.705 Y135.898 E4.22076
G1 X99.486 Y134.135 E4.30411
G1 X101.217 Y132.322 E4.38748
G1 X102.904 Y130.453 E4.47122
G1 X104.551 Y128.518 E4.55574
G1 X106.131 Y126.555 E4.63955
G1 X107.166 Y125.192 E4.69647
G1 X107.537 Y124.719 E4.71647
G1 X108.147 Y124.007 E4.74765
G1 X108.815 Y123.349 E4.77884
G0 F6000 X109.108 Y123.623
G1 F1200 X109.819 Y123.038 E4.80946
G1 X110.578 Y122.517 E4.84008
G1 X111.313 Y122.098 E4.86822
G1 X111.448 Y122.028 E4.87328
G1 X112.283 Y121.64 E4.9039
G1 X113.376 Y121.257 E4.94242
G1 X113.721 Y121.157 E4.95437
G1 X114.616 Y120.939 E4.98501
G1 X115.526 Y120.8 E5.01563
G1 X116.07 Y120.755 E5.03378
G1 X116.369 Y120.738 E5.04374
G1 X116.69 Y120.725 E5.05443
G1 X117.179 Y120.713 E5.0707
G1 X118.394 Y120.698 E5.11111
G1 X118.681 Y120.698 E5.12066
G1 X119.226 Y120.706 E5.13878
G1 X120.145 Y120.76 E5.1694
G1 X121.056 Y120.893 E5.20002
G1 X121.952 Y121.104 E5.23064
G1 X122.826 Y121.393 E5.26126
G1 X123.587 Y121.716 E5.28875
G1 X123.829 Y121.83 E5.29765
G1 X124.092 Y121.958 E5.30738
G1 X124.282 Y122.054 E5.31446
G1 X125.085 Y122.505 E5.34509
G1 X125.846 Y123.023 E5.37571
G1 X126.559 Y123.606 E5.40634
G1 X127.219 Y124.248 E5.43697
G1 X127.82 Y124.945 E5.46758
G1 X128.141 Y125.372 E5.48535
G1 X128.285 Y125.575 E5.49362
G1 X129.786 Y127.625 E5.57813
G1 X131.354 Y129.645 E5.66318
G1 X132.945 Y131.578 E5.74645
G1 X134.603 Y133.48 E5.83037
G1 X136.334 Y135.358 E5.91532
G1 X138.501 Y137.565 E6.01819
G1 X138.724 Y137.786 E6.02864
G1 X139.348 Y138.462 E6.05924
G1 X139.912 Y139.19 E6.08986
G1 X140.411 Y139.964 E6.12049
G1 X140.84 Y140.779 E6.15113
G1 X141.197 Y141.627 E6.18173
G1 X141.479 Y142.503 E6.21234
G1 X141.684 Y143.401 E6.24297
G1 X141.811 Y144.313 E6.2736
G1 X141.853 Y144.975 E6.29566
G1 X141.861 Y145.227 E6.30405
G1 X141.866 Y145.584 E6.31592
G1 X141.86 Y148.208 E6.4032
G1 X141.849 Y148.942 E6.42761
G1 X141.795 Y149.861 E6.45823
G1 X141.662 Y150.772 E6.48885
G1 X141.45 Y151.668 E6.51948
G1 X141.161 Y152.542 E6.55009
G1 X140.798 Y153.388 E6.58071
G1 X140.362 Y154.199 E6.61134
G1 X139.858 Y154.969 E6.64195
G1 X139.288 Y155.693 E6.67259
G1 X138.659 Y156.364 E6.70318
G1 X137.973 Y156.978 E6.73381
G1 X137.236 Y157.531 E6.76445
G1 X136.455 Y158.017 E6.79505
G1 X135.634 Y158.434 E6.82567
G1 X134.78 Y158.778 E6.8563
G1 X133.899 Y159.047 E6.88693
G1 X132.999 Y159.238 E6.91753
G1 X132.085 Y159.35 E6.94816
G1 X131.465 Y159.381 E6.96881
G1 X130.477 Y159.401 E7.00168
G1 X130.262 Y159.403 E7.00883
G1 X104.306 Y159.402 E7.87213
G1 X103.608 Y159.392 E7.89535
G1 X102.689 Y159.339 E7.92596
G1 X101.778 Y159.206 E7.95658
G1 X100.882 Y158.995 E7.9872
G1 X100.008 Y158.707 E8.01781
G1 X99.161 Y158.344 E8.04846
G1 X98.35 Y157.909 E8.07907
G1 X97.58 Y157.405 E8.10967
G1 X96.856 Y156.836 E8.1403
G1 X96.184 Y156.206 E8.17094
G1 X95.569 Y155.521 E8.20156
G1 X95.016 Y154.785 E8.23218
G1 X94.529 Y154.004 E8.26279
G1 X94.112 Y153.183 E8.29341
G1 X93.767 Y152.329 E8.32405
G1 X93.498 Y151.449 E8.35466
G1 X93.306 Y150.548 E8.3853
G1 X93.193 Y149.635 E8.41589
G1 X93.164 Y149.075 E8.43454
G1 X93.156 Y148.774 E8.44456
G1 X93.152 Y148.496 E8.45381
G1 X93.152 Y145.832 E8.54241
G1 X93.16 Y145.181 E8.56407
G1 X93.211 Y144.262 E8.59468
G1 X93.342 Y143.35 E8.62532
G1 X93.551 Y142.454 E8.65592
G1 X93.838 Y141.579 E8.68655
G1 X94.199 Y140.732 E8.71718
G1 X94.632 Y139.92 E8.74778
G1 X95.135 Y139.148 E8.77843
G1 X95.702 Y138.423 E8.80904
G1 X96.391 Y137.691 E8.84248
G1 X96.943 Y137.159 E8.86797
G1 X97.959 Y136.209 E8.91424
G1 X99.773 Y134.413 E8.99914
G1 X101.521 Y132.583 E9.08331
G1 X103.207 Y130.714 E9.16703
G1 X104.867 Y128.765 E9.25218
G1 X106.416 Y126.84 E9.33436
G1 X107.375 Y125.575 E9.38716
G1 X107.852 Y124.966 E9.41289
G1 X108.451 Y124.267 E9.44351
G1 X109.108 Y123.623 E9.4741
G0 F6000 X109.401 Y123.897
G1 F1200 X110.101 Y123.326 E9.50415
G1 X110.848 Y122.82 E9.53416
G1 X111.497 Y122.453 E9.55896
G1 X111.632 Y122.383 E9.56401
G1 X112.451 Y122.003 E9.59404
G1 X113.487 Y121.641 E9.63054
G1 X113.832 Y121.541 E9.64249
G1 X114.71 Y121.328 E9.67254
G1 X115.603 Y121.194 E9.70257
G1 X116.093 Y121.154 E9.71893
G1 X116.392 Y121.137 E9.72889
G1 X116.7 Y121.125 E9.73914
G1 X117.184 Y121.113 E9.75524
G1 X118.399 Y121.098 E9.79566
G1 X118.675 Y121.098 E9.80484
G1 X119.22 Y121.106 E9.82296
G1 X120.121 Y121.159 E9.85298
G1 X121.015 Y121.292 E9.88305
G1 X121.893 Y121.503 E9.91308
G1 X122.749 Y121.791 E9.94312
G1 X123.417 Y122.078 E9.9673
G1 X123.659 Y122.192 E9.9762
G1 X123.912 Y122.315 E9.98555
G1 X124.102 Y122.411 E9.99263
G1 X124.889 Y122.854 E10.02267
G1 X125.634 Y123.364 E10.0527
G1 X126.331 Y123.938 E10.08273
G1 X126.974 Y124.572 E10.11277
G1 X127.815 Y125.604 E10.15704
G1 X127.934 Y125.772 E10.16389
G1 X129.48 Y127.883 E10.25092
G1 X131.044 Y129.899 E10.33578
G1 X132.65 Y131.85 E10.41983
G1 X134.308 Y133.75 E10.5037
G1 X136.021 Y135.609 E10.58778
G1 X138.255 Y137.884 E10.69383
G1 X138.442 Y138.07 E10.7026
G1 X139.054 Y138.734 E10.73264
G1 X139.605 Y139.449 E10.76266
G1 X140.091 Y140.211 E10.79272
G1 X140.508 Y141.012 E10.82276
G1 X140.852 Y141.847 E10.85279
G1 X141.121 Y142.709 E10.88283
G1 X141.312 Y143.592 E10.91287
G1 X141.425 Y144.488 E10.94291
G1 X141.453 Y144.987 E10.95953
G1 X141.461 Y145.239 E10.96792
G1 X141.466 Y145.584 E10.9794
G1 X141.46 Y148.202 E11.06647
G1 X141.449 Y148.936 E11.09089
G1 X141.395 Y149.837 E11.12091
G1 X141.262 Y150.731 E11.15097
G1 X141.051 Y151.609 E11.181
G1 X140.762 Y152.464 E11.21102
G1 X140.4 Y153.291 E11.24105
G1 X139.965 Y154.083 E11.2711
G1 X139.462 Y154.833 E11.30114
G1 X138.895 Y155.536 E11.33118
G1 X138.267 Y156.186 E11.36124
G1 X137.585 Y156.777 E11.39125
G1 X136.853 Y157.306 E11.42129
G1 X136.077 Y157.768 E11.45133
G1 X135.264 Y158.16 E11.48135
G1 X134.418 Y158.478 E11.51141
G1 X133.548 Y158.721 E11.54145
G1 X132.66 Y158.885 E11.57149
G1 X131.456 Y158.981 E11.61166
G1 X130.468 Y159.001 E11.64453
G1 X130.262 Y159.003 E11.65138
G1 X104.312 Y159.002 E12.51448
G1 X103.614 Y158.992 E12.5377
G1 X102.712 Y158.939 E12.56775
G1 X101.819 Y158.807 E12.59777
G1 X100.941 Y158.596 E12.62781
G1 X100.085 Y158.308 E12.65785
G1 X99.258 Y157.946 E12.68787
G1 X98.466 Y157.511 E12.71793
G1 X97.715 Y157.009 E12.74797
G1 X97.012 Y156.442 E12.77801
G1 X96.362 Y155.815 E12.80805
G1 X95.77 Y155.133 E12.83809
G1 X95.24 Y154.402 E12.86812
G1 X94.778 Y153.626 E12.89816
G1 X94.385 Y152.813 E12.92819
G1 X94.067 Y151.968 E12.95822
G1 X93.824 Y151.098 E12.98826
G1 X93.659 Y150.21 E13.0183
G1 X93.564 Y149.064 E13.05655
G1 X93.556 Y148.763 E13.06656
G1 X93.552 Y148.496 E13.07545
G1 X93.552 Y145.837 E13.16388
G1 X93.56 Y145.186 E13.18554
G1 X93.611 Y144.284 E13.21559
G1 X93.741 Y143.39 E13.24563
G1 X93.951 Y142.512 E13.27566
G1 X94.237 Y141.655 E13.30571
G1 X94.597 Y140.827 E13.33574
G1 X95.03 Y140.034 E13.36579
G1 X95.531 Y139.283 E13.39582
G1 X96.096 Y138.579 E13.42584
G1 X96.669 Y137.978 E13.45346
G1 X97.216 Y137.451 E13.47872
G1 X98.266 Y136.469 E13.52654
G1 X100.026 Y134.727 E13.6089
G1 X101.824 Y132.844 E13.6955
G1 X103.508 Y130.978 E13.7791
G1 X105.152 Y129.048 E13.86342
G1 X106.76 Y127.048 E13.94877
G1 X107.795 Y125.686 E14.00567
G1 X108.166 Y125.213 E14.02566
G1 X108.755 Y124.528 E14.05571
G1 X109.401 Y123.897 E14.08575
G1 F1500 E7.58575
;MESH:base.stl
G0 F6000 X109.401 Y144.641
G0 X109.401 Y145.726
G0 X104.532 Y146.088
G0 X104.351 Y148.203
;TYPE:WALL-INNER
G1 F1500 E14.08575
G1 F1200 X104.352 Y146.892 E14.12935
G1 X104.35 Y145.906 E14.16215
G1 X130.666 Y145.906 E15.03742
G1 X130.661 Y148.203 E15.11382
G1 X104.351 Y148.203 E15.98889
G0 F6000 X103.951 Y148.603
;TYPE:WALL-OUTER
G1 F1200 X103.952 Y146.892 E16.0458
G1 X103.949 Y145.506 E16.0919
G1 X131.067 Y145.506 E16.99385
G1 X131.06 Y148.603 E17.09685
G1 X103.951 Y148.603 E17.9985
G0 F6000 X104.221 Y148.333
G0 X104.462 Y147.812
G0 X104.741 Y147.813
;TYPE:SKIN
G1 F1200 X104.742 Y146.892 E18.02914
G1 X104.74 Y146.296 E18.04896
G1 X130.275 Y146.296 E18.89826
G1 X130.271 Y147.813 E18.94871
G1 X104.741 Y147.813 E19.79784
G0 F6000 X105.225 Y147.652
G1 F1200 X104.9 Y147.327 E19.81313
G0 F6000 X104.901 Y146.762
G1 F1200 X105.791 Y147.652 E19.85499
G0 F6000 X106.357 Y147.652
G1 F1200 X105.16 Y146.455 E19.9113
G0 F6000 X105.725 Y146.455
G1 F1200 X106.923 Y147.652 E19.96762
G0 F6000 X107.488 Y147.652
G1 F1200 X106.291 Y146.455 E20.02393
G0 F6000 X106.857 Y146.455
G1 F1200 X108.054 Y147.652 E20.08023
G0 F6000 X108.62 Y147.652
G1 F1200 X107.422 Y146.455 E20.13656
G0 F6000 X107.988 Y146.455
G1 F1200 X109.185 Y147.652 E20.19286
G0 F6000 X109.751 Y147.652
G1 F1200 X108.554 Y146.455 E20.24916
G0 F6000 X109.12 Y146.455
G1 F1200 X110.317 Y147.652 E20.30547
G0 F6000 X110.882 Y147.652
G1 F1200 X109.685 Y146.455 E20.36177
G0 F6000 X110.251 Y146.455
G1 F1200 X111.448 Y147.652 E20.41807
G0 F6000 X112.014 Y147.652
G1 F1200 X110.817 Y146.455 E20.47438
G0 F6000 X111.382 Y146.455
G1 F1200 X112.579 Y147.652 E20.53068
G0 F6000 X113.145 Y147.652
G1 F1200 X111.948 Y146.455 E20.58698
G0 F6000 X112.514 Y146.455
G1 F1200 X113.711 Y147.652 E20.64328
G0 F6000 X114.276 Y147.652
G1 F1200 X113.079 Y146.455 E20.69959
G0 F6000 X113.645 Y146.455
G1 F1200 X114.842 Y147.652 E20.75589
G0 F6000 X115.408 Y147.652
G1 F1200 X114.211 Y146.455 E20.81219
G0 F6000 X114.776 Y146.455
G1 F1200 X115.973 Y147.652 E20.8685
G0 F6000 X116.539 Y147.652
G1 F1200 X115.342 Y146.455 E20.9248
G0 F6000 X115.908 Y146.455
G1 F1200 X117.105 Y147.652 E20.9811
G0 F6000 X117.671 Y147.652
G1 F1200 X116.473 Y146.455 E21.03743
G0 F6000 X117.039 Y146.455
G1 F1200 X118.236 Y147.652 E21.09373
G0 F6000 X118.802 Y147.652
G1 F1200 X117.605 Y146.455 E21.15004
G0 F6000 X118.17 Y146.455
G1 F1200 X119.368 Y147.652 E21.20636
G0 F6000 X119.933 Y147.652
G1 F1200 X118.736 Y146.455 E21.26267
G0 F6000 X119.302 Y146.455
G1 F1200 X120.499 Y147.652 E21.31897
G0 F6000 X121.065 Y147.652
G1 F1200 X119.868 Y146.455 E21.37527
G0 F6000 X120.433 Y146.455
G1 F1200 X121.63 Y147.652 E21.43158
G0 F6000 X122.196 Y147.652
G1 F1200 X120.999 Y146.455 E21.48788
G0 F6000 X121.565 Y146.455
G1 F1200 X122.762 Y147.652 E21.54418
G0 F6000 X123.327 Y147.652
G1 F1200 X122.13 Y146.455 E21.60049
G0 F6000 X122.696 Y146.455
G1 F1200 X123.893 Y147.652 E21.65679
G0 F6000 X124.459 Y147.652
G1 F1200 X123.262 Y146.455 E21.71309
G0 F6000 X123.827 Y146.455
G1 F1200 X125.024 Y147.652 E21.7694
G0 F6000 X125.59 Y147.652
G1 F1200 X124.393 Y146.455 E21.8257
G0 F6000 X124.959 Y146.455
G1 F1200 X126.156 Y147.652 E21.882
G0 F6000 X126.722 Y147.652
G1 F1200 X125.524 Y146.455 E21.93833
G0 F6000 X126.09 Y146.455
G1 F1200 X127.287 Y147.652 E21.99463
G0 F6000 X127.853 Y147.652
G1 F1200 X126.656 Y146.455 E22.05094
G0 F6000 X127.221 Y146.455
G1 F1200 X128.419 Y147.652 E22.10726
G0 F6000 X128.984 Y147.652
G1 F1200 X127.787 Y146.455 E22.16357
G0 F6000 X128.353 Y146.455
G1 F1200 X129.55 Y147.652 E22.21987
G0 F6000 X130.112 Y147.648
G1 F1200 X128.919 Y146.455 E22.27598
G0 F6000 X129.484 Y146.455
G1 F1200 X130.113 Y147.083 E22.30555
G0 F6000 X130.114 Y146.518
G1 F1200 X130.05 Y146.455 E22.30853
G0 F6000 X130.05 Y146.106
G1 F1500 E15.80853
G0 F6000 X130.05 Y146.016
G0 X113.133 Y145.726
G0 X113.133 Y144.883
G0 X113.133 Y144.703
;TYPE:WALL-INNER
G1 F1500 E22.30853
G1 F1200 X114.083 Y141.694 E22.41348
G1 X115.762 Y135.67 E22.62148
G1 X116.636 Y132.095 E22.74389
G1 X116.679 Y131.945 E22.74908
G1 X116.745 Y131.927 E22.75135
G1 X117.991 Y131.894 E22.79281
G1 X118.872 Y131.896 E22.82211
G1 X118.976 Y131.975 E22.82645
G1 X119.067 Y132.727 E22.85165
G1 X122.56 Y144.703 E23.26657
