;FLAVOR:Marlin
;TIME:4929
;Filament used: 2.55004m
;Layer height: 0.2
;MINX:93.207
;MINY:80.119
;MINZ:0.2
;MAXX:145.463
;MAXY:154.583
;MAXZ:18.2
;Generated with Cura_SteamEngine 4.12.1
M140 S60
M105
M190 S60
M104 S200
M105
M109 S200
M82 ;absolute extrusion mode
M201 X500.00 Y500.00 Z100.00 E5000.00 ;Setup machine max acceleration
M203 X500.00 Y500.00 Z10.00 E50.00 ;Setup machine max feedrate
M204 P500.00 R1000.00 T500.00 ;Setup Print/Retract/Travel acceleration
M205 X8.00 Y8.00 Z0.40 E5.00 ;Setup Jerk
M220 S100 ;Reset Feedrate
M221 S100 ;Reset Flowrate

G28 ;Home

G92 E0 ;Reset Extruder
G1 Z2.0 F3000 ;Move Z Axis up
G1 X10.1 Y20 Z0.28 F5000.0 ;Move to start position
G1 X10.1 Y200.0 Z0.28 F1500.0 E15 ;Draw the first line
G1 X10.4 Y200.0 Z0.28 F5000.0 ;Move to side a little
G1 X10.4 Y20 Z0.28 F1500.0 E30 ;Draw the second line
G92 E0 ;Reset Extruder
G1 Z2.0 F3000 ;Move Z Axis up

G92 E0
G92 E0
G1 F1500 E-6.5
;LAYER_COUNT:91
;LAYER:0
M107
G0 F6000 X95.813 Y84.078 Z0.2
;TYPE:SKIRT
G1 F1500 E0
G1 F1200 X96.445 Y83.385 E0.03119
G1 X97.134 Y82.748 E0.0624
G1 X97.874 Y82.173 E0.09357
G1 X98.661 Y81.663 E0.12477
G1 X99.489 Y81.221 E0.15598
G1 X100.351 Y80.852 E0.18717
G1 X101.241 Y80.558 E0.21834
G1 X102.154 Y80.34 E0.24956
G1 X103.081 Y80.201 E0.28074
G1 X104.247 Y80.139 E0.31958
G1 X105.025 Y80.14 E0.34545
G1 X106.384 Y80.158 E0.39066
G1 X108.864 Y80.121 E0.47315
G1 X109.271 Y80.119 E0.48669
G1 X129.176 Y80.17 E1.14873
G1 X129.579 Y80.176 E1.16214
G1 X132.19 Y80.184 E1.24898
G1 X133.778 Y80.146 E1.30181
G1 X134.335 Y80.14 E1.32034
G1 X135.272 Y80.17 E1.35152
G1 X136.204 Y80.281 E1.38274
G1 X137.122 Y80.47 E1.41391
G1 X138.021 Y80.737 E1.4451
G1 X138.895 Y81.079 E1.47632
G1 X139.735 Y81.495 E1.5075
G1 X140.538 Y81.98 E1.5387
G1 X141.296 Y82.533 E1.56991
G1 X142.004 Y83.147 E1.60108
G1 X142.657 Y83.82 E1.63227
G1 X143.251 Y84.547 E1.66349
G1 X143.78 Y85.321 E1.69467
G1 X144.242 Y86.137 E1.72586
G1 X144.632 Y86.99 E1.75706
G1 X144.949 Y87.873 E1.78826
G1 X145.189 Y88.779 E1.81943
G1 X145.351 Y89.703 E1.85063
G1 X145.443 Y90.93 E1.89156
G1 X145.461 Y91.879 E1.92313
G1 X145.463 Y92.088 E1.93008
G1 X145.463 Y98.846 E2.15485
G1 X145.456 Y99.742 E2.18465
G1 X145.404 Y103.419 E2.30696
G1 X145.385 Y104.394 E2.3394
G1 X145.358 Y106.479 E2.40875
G1 X145.356 Y108.346 E2.47085
G1 X145.359 Y109.137 E2.49716
G1 X145.395 Y113.862 E2.65432
G1 X145.396 Y114.565 E2.6777
G1 X145.371 Y119.387 E2.83808
G1 X145.376 Y120.926 E2.88927
G1 X145.415 Y124.448 E3.00642
G1 X145.419 Y125.215 E3.03193
G1 X145.418 Y133.256 E3.29937
G1 X145.421 Y133.908 E3.32106
G1 X145.454 Y138.644 E3.47858
G1 X145.45 Y139.801 E3.51706
G1 X145.416 Y142.177 E3.5961
G1 X145.395 Y142.955 E3.62198
G1 X145.33 Y143.89 E3.65316
G1 X145.162 Y144.929 E3.68816
G1 X145.116 Y145.147 E3.69557
G1 X144.883 Y146.056 E3.72679
G1 X144.475 Y147.183 E3.76665
G1 X144.455 Y147.23 E3.76835
G1 X144.051 Y148.077 E3.79956
G1 X143.577 Y148.886 E3.83075
G1 X143.035 Y149.651 E3.86193
G1 X142.43 Y150.368 E3.89313
G1 X141.767 Y151.031 E3.92432
G1 X141.192 Y151.523 E3.94949
G1 X140.363 Y152.182 E3.98471
G1 X140.199 Y152.308 E3.99159
G1 X139.431 Y152.847 E4.0228
G1 X138.621 Y153.319 E4.05398
G1 X137.773 Y153.72 E4.08518
G1 X136.894 Y154.047 E4.11637
G1 X135.991 Y154.299 E4.14755
G1 X135.069 Y154.472 E4.17875
G1 X134.136 Y154.566 E4.20994
G1 X133.142 Y154.579 E4.243
G1 X132.747 Y154.565 E4.25615
G1 X132.052 Y154.529 E4.2793
G1 X128.343 Y154.41 E4.40272
G1 X128.045 Y154.406 E4.41264
G1 X125.501 Y154.41 E4.49725
G1 X123.193 Y154.444 E4.57402
G1 X121.212 Y154.495 E4.63993
G1 X120.491 Y154.52 E4.66393
G1 X119.63 Y154.54 E4.69257
G1 X119.341 Y154.543 E4.70218
G1 X118.919 Y154.541 E4.71622
G1 X115.914 Y154.504 E4.81617
G1 X113.745 Y154.459 E4.88833
G1 X111.186 Y154.443 E4.97345
G1 X108.896 Y154.506 E5.04964
G1 X108.702 Y154.503 E5.05609
G1 X106.034 Y154.574 E5.14486
G1 X105.352 Y154.583 E5.16755
G1 X104.415 Y154.555 E5.19873
G1 X103.483 Y154.448 E5.22993
G1 X102.578 Y154.265 E5.26064
G1 X102.383 Y154.217 E5.26732
G1 X101.482 Y153.954 E5.29854
G1 X100.492 Y153.564 E5.33393
G1 X100.35 Y153.5 E5.33911
G1 X99.903 Y153.287 E5.35558
G1 X99.573 Y153.12 E5.36788
G1 X98.755 Y152.661 E5.39907
G1 X97.979 Y152.134 E5.43027
G1 X97.251 Y151.543 E5.46146
G1 X96.576 Y150.892 E5.49265
G1 X95.958 Y150.186 E5.52386
G1 X95.403 Y149.43 E5.55505
G1 X94.769 Y148.357 E5.5965
G1 X94.693 Y148.21 E5.60201
G1 X94.516 Y147.852 E5.61529
G1 X94.365 Y147.532 E5.62706
G1 X94.001 Y146.668 E5.65824
G1 X93.681 Y145.658 E5.69348
G1 X93.633 Y145.477 E5.69971
G1 X93.431 Y144.561 E5.73091
G1 X93.308 Y143.631 E5.76211
G1 X93.266 Y142.827 E5.78889
G1 X93.253 Y141.876 E5.82052
G1 X93.256 Y132.555 E6.13054
G1 X93.241 Y127.282 E6.30592
G1 X93.251 Y114.392 E6.73464
G1 X93.256 Y113.758 E6.75573
G1 X93.29 Y111.372 E6.8351
G1 X93.29 Y108.764 E6.92184
G1 X93.262 Y107.424 E6.96642
G1 X93.228 Y106.189 E7.00751
G1 X93.207 Y104.82 E7.05305
G1 X93.207 Y103.872 E7.08458
G1 X93.237 Y95.496 E7.36317
G1 X93.238 Y91.656 E7.49089
G1 X93.248 Y90.977 E7.51347
G1 X93.302 Y90.041 E7.54466
G1 X93.435 Y89.112 E7.57587
G1 X93.647 Y88.199 E7.60704
G1 X93.936 Y87.306 E7.63826
G1 X94.3 Y86.442 E7.66944
G1 X94.736 Y85.612 E7.70063
G1 X95.242 Y84.822 E7.73183
G1 X95.813 Y84.078 E7.76302
G0 F6000 X96.207 Y84.231
G1 F1200 X96.837 Y83.56 E7.79364
G1 X97.522 Y82.945 E7.82425
G1 X98.259 Y82.393 E7.85488
G1 X99.04 Y81.906 E7.88549
G1 X99.861 Y81.489 E7.91612
G1 X100.715 Y81.145 E7.94674
G1 X101.595 Y80.876 E7.97735
G1 X102.496 Y80.685 E8.00798
G1 X103.41 Y80.572 E8.03861
G1 X104.247 Y80.539 E8.06647
G1 X105.02 Y80.54 E8.09218
G1 X106.385 Y80.558 E8.13759
G1 X108.867 Y80.521 E8.22015
G1 X109.27 Y80.519 E8.23355
G1 X129.175 Y80.57 E8.8956
G1 X129.571 Y80.576 E8.90877
G1 X132.199 Y80.585 E8.99618
G1 X133.788 Y80.546 E9.04904
G1 X134.339 Y80.54 E9.06737
G1 X135.259 Y80.57 E9.09799
G1 X136.173 Y80.681 E9.12861
G1 X137.074 Y80.87 E9.15923
G1 X137.955 Y81.137 E9.18985
G1 X138.81 Y81.479 E9.22048
G1 X139.632 Y81.895 E9.25112
G1 X140.414 Y82.379 E9.28171
G1 X141.152 Y82.93 E9.31234
G1 X141.839 Y83.543 E9.34296
G1 X142.47 Y84.214 E9.3736
G1 X143.041 Y84.936 E9.40421
G1 X143.546 Y85.705 E9.43481
G1 X143.984 Y86.516 E9.46547
G1 X144.349 Y87.361 E9.49608
G1 X144.639 Y88.234 E9.52668
G1 X144.853 Y89.13 E9.55732
G1 X144.988 Y90.041 E9.58795
G1 X145.043 Y90.938 E9.61784
G1 X145.061 Y91.887 E9.64941
G1 X145.063 Y92.088 E9.6561
G1 X145.063 Y98.843 E9.88077
G1 X145.056 Y99.736 E9.91047
G1 X145.004 Y103.412 E10.03275
G1 X144.985 Y104.387 E10.06518
G1 X144.958 Y106.474 E10.1346
G1 X144.956 Y108.346 E10.19686
G1 X144.959 Y109.14 E10.22327
G1 X144.995 Y113.862 E10.38033
G1 X144.996 Y114.563 E10.40365
G1 X144.971 Y119.385 E10.56403
G1 X144.976 Y120.927 E10.61532
G1 X145.015 Y124.45 E10.7325
G1 X145.019 Y125.215 E10.75794
G1 X145.018 Y133.256 E11.02539
G1 X145.021 Y133.91 E11.04714
G1 X145.054 Y138.643 E11.20456
G1 X145.05 Y139.795 E11.24288
G1 X145.016 Y142.166 E11.32175
G1 X144.995 Y142.944 E11.34763
G1 X144.93 Y143.862 E11.37824
G1 X144.771 Y144.847 E11.41143
G1 X144.725 Y145.065 E11.41884
G1 X144.496 Y145.956 E11.44944
G1 X144.107 Y147.026 E11.4873
G1 X144.087 Y147.073 E11.489
G1 X143.69 Y147.904 E11.51963
G1 X143.222 Y148.697 E11.55026
G1 X142.688 Y149.447 E11.58088
G1 X142.09 Y150.147 E11.6115
G1 X141.434 Y150.793 E11.64213
G1 X140.943 Y151.21 E11.66355
G1 X140.271 Y151.746 E11.69214
G1 X139.955 Y151.991 E11.70544
G1 X139.201 Y152.519 E11.73606
G1 X138.404 Y152.981 E11.7667
G1 X137.571 Y153.371 E11.79729
G1 X136.706 Y153.688 E11.82793
G1 X135.817 Y153.928 E11.85856
G1 X134.911 Y154.09 E11.88917
G1 X133.994 Y154.173 E11.91979
G1 X133.155 Y154.179 E11.9477
G1 X132.767 Y154.165 E11.96061
G1 X132.084 Y154.13 E11.98336
G1 X128.361 Y154.01 E12.10725
G1 X128.049 Y154.006 E12.11763
G1 X125.494 Y154.01 E12.20261
G1 X123.176 Y154.044 E12.27971
G1 X121.194 Y154.095 E12.34566
G1 X120.482 Y154.12 E12.36935
G1 X119.621 Y154.14 E12.398
G1 X119.342 Y154.143 E12.40728
G1 X118.924 Y154.141 E12.42118
G1 X115.921 Y154.104 E12.52107
G1 X113.755 Y154.06 E12.59312
G1 X111.177 Y154.043 E12.67887
G1 X108.885 Y154.106 E12.75513
G1 X108.697 Y154.103 E12.76138
G1 X106.029 Y154.174 E12.85015
G1 X105.347 Y154.183 E12.87284
G1 X104.427 Y154.155 E12.90345
G1 X103.512 Y154.048 E12.93409
G1 X102.673 Y153.877 E12.96257
G1 X102.478 Y153.829 E12.96925
G1 X101.595 Y153.57 E12.99986
G1 X100.656 Y153.2 E13.03343
G1 X100.514 Y153.136 E13.03861
G1 X100.084 Y152.93 E13.05446
G1 X99.754 Y152.763 E13.06677
G1 X98.951 Y152.312 E13.0974
G1 X98.191 Y151.793 E13.12801
G1 X97.478 Y151.21 E13.15864
G1 X96.819 Y150.567 E13.18926
G1 X96.218 Y149.87 E13.21987
G1 X95.679 Y149.123 E13.25051
G1 X95.124 Y148.173 E13.28711
G1 X95.048 Y148.026 E13.29261
G1 X94.878 Y147.682 E13.30537
G1 X94.727 Y147.362 E13.31714
G1 X94.37 Y146.513 E13.34777
G1 X94.067 Y145.555 E13.38119
G1 X94.019 Y145.374 E13.38742
G1 X93.822 Y144.475 E13.41803
G1 X93.704 Y143.562 E13.44865
G1 X93.666 Y142.821 E13.47333
G1 X93.653 Y141.877 E13.50473
G1 X93.656 Y132.556 E13.81475
G1 X93.641 Y127.283 E13.99013
G1 X93.651 Y114.395 E14.41878
G1 X93.656 Y113.764 E14.43977
G1 X93.69 Y111.378 E14.51914
G1 X93.69 Y108.755 E14.60638
G1 X93.662 Y107.415 E14.65096
G1 X93.628 Y106.183 E14.69195
G1 X93.607 Y104.814 E14.73749
G1 X93.607 Y103.873 E14.76879
G1 X93.637 Y95.497 E15.04738
G1 X93.638 Y91.662 E15.17493
G1 X93.648 Y90.983 E15.19751
G1 X93.702 Y90.064 E15.22813
G1 X93.835 Y89.153 E15.25875
G1 X94.046 Y88.257 E15.28937
G1 X94.335 Y87.383 E15.31999
G1 X94.698 Y86.537 E15.35061
G1 X95.134 Y85.725 E15.38126
G1 X95.638 Y84.955 E15.41187
G1 X96.207 Y84.231 E15.4425
G0 F6000 X96.601 Y84.388
G1 F1200 X97.228 Y83.738 E15.47254
G1 X97.91 Y83.146 E15.50257
G1 X98.642 Y82.617 E15.53261
G1 X99.417 Y82.155 E15.56262
G1 X100.231 Y81.763 E15.59267
G1 X101.076 Y81.444 E15.62271
G1 X101.946 Y81.202 E15.65275
G1 X102.834 Y81.037 E15.68279
G1 X103.733 Y80.952 E15.71282
G1 X104.247 Y80.939 E15.72992
G1 X105.015 Y80.94 E15.75547
G1 X106.386 Y80.958 E15.80107
G1 X108.87 Y80.921 E15.8837
G1 X109.269 Y80.919 E15.89697
G1 X129.174 Y80.97 E16.55901
G1 X129.563 Y80.976 E16.57195
G1 X132.208 Y80.985 E16.65993
G1 X133.798 Y80.946 E16.71283
G1 X134.343 Y80.94 E16.73095
G1 X135.246 Y80.97 E16.761
G1 X136.142 Y81.081 E16.79103
G1 X137.025 Y81.271 E16.82107
G1 X137.888 Y81.538 E16.85112
G1 X138.723 Y81.88 E16.88113
G1 X139.526 Y82.294 E16.91118
G1 X140.288 Y82.778 E16.9412
G1 X141.005 Y83.328 E16.97126
G1 X141.67 Y83.939 E17.0013
G1 X142.278 Y84.606 E17.03131
G1 X142.826 Y85.325 E17.06138
G1 X143.307 Y86.089 E17.09141
G1 X143.719 Y86.892 E17.12143
G1 X144.058 Y87.729 E17.15146
G1 X144.322 Y88.593 E17.18151
G1 X144.509 Y89.477 E17.21156
G1 X144.616 Y90.373 E17.24158
G1 X144.643 Y90.946 E17.26066
G1 X144.663 Y92.088 E17.29864
G1 X144.663 Y98.841 E17.52325
G1 X144.656 Y99.731 E17.55285
G1 X144.604 Y103.404 E17.67503
G1 X144.585 Y104.379 E17.70746
G1 X144.558 Y106.468 E17.77695
G1 X144.556 Y108.346 E17.83941
G1 X144.559 Y109.143 E17.86592
G1 X144.595 Y113.863 E18.02291
G1 X144.596 Y114.561 E18.04613
G1 X144.571 Y119.383 E18.20651
G1 X144.576 Y120.929 E18.25793
G1 X144.615 Y124.452 E18.37512
G1 X144.619 Y125.215 E18.40049
G1 X144.618 Y133.256 E18.66794
G1 X144.621 Y133.913 E18.68979
G1 X144.654 Y138.642 E18.84708
G1 X144.65 Y139.79 E18.88526
G1 X144.616 Y142.155 E18.96393
G1 X144.595 Y142.933 E18.98982
G1 X144.531 Y143.834 E19.01986
G1 X144.379 Y144.764 E19.0512
G1 X144.333 Y144.982 E19.05861
G1 X144.108 Y145.856 E19.08863
G1 X143.739 Y146.87 E19.12452
G1 X143.719 Y146.917 E19.12622
G1 X143.329 Y147.731 E19.15624
G1 X142.868 Y148.508 E19.18629
G1 X142.34 Y149.241 E19.21634
G1 X141.75 Y149.925 E19.24638
G1 X141.102 Y150.553 E19.27639
G1 X140.693 Y150.897 E19.29417
G1 X140.021 Y151.433 E19.32276
G1 X139.711 Y151.673 E19.3358
G1 X138.971 Y152.191 E19.36584
G1 X138.189 Y152.642 E19.39587
G1 X137.369 Y153.021 E19.42591
G1 X136.519 Y153.327 E19.45596
G1 X135.646 Y153.556 E19.48598
G1 X134.755 Y153.707 E19.51603
G1 X133.855 Y153.779 E19.54606
G1 X133.168 Y153.78 E19.56891
G1 X132.788 Y153.766 E19.58156
G1 X132.12 Y153.732 E19.60381
G1 X128.327 Y153.609 E19.73003
G1 X128.053 Y153.606 E19.73914
G1 X125.488 Y153.61 E19.82446
G1 X123.251 Y153.643 E19.89887
G1 X121.078 Y153.699 E19.97116
G1 X120.473 Y153.72 E19.9913
G1 X119.612 Y153.74 E20.01994
G1 X119.344 Y153.743 E20.02886
G1 X118.929 Y153.741 E20.04266
G1 X115.927 Y153.704 E20.14252
G1 X113.766 Y153.66 E20.21441
G1 X111.169 Y153.643 E20.30078
G1 X108.874 Y153.706 E20.37715
G1 X108.687 Y153.703 E20.38337
G1 X106.024 Y153.774 E20.47197
G1 X105.342 Y153.783 E20.49465
G1 X104.439 Y153.755 E20.5247
G1 X103.542 Y153.647 E20.55475
G1 X102.769 Y153.488 E20.581
G1 X102.574 Y153.44 E20.58768
G1 X101.707 Y153.186 E20.61773
G1 X100.821 Y152.835 E20.64943
G1 X100.679 Y152.771 E20.65461
G1 X100.264 Y152.573 E20.6699
G1 X99.934 Y152.406 E20.6822
G1 X99.147 Y151.963 E20.71224
G1 X98.403 Y151.452 E20.74226
G1 X97.706 Y150.877 E20.77231
G1 X97.063 Y150.243 E20.80235
G1 X96.479 Y149.555 E20.83236
G1 X95.958 Y148.817 E20.86241
G1 X95.479 Y147.989 E20.89422
G1 X95.403 Y147.842 E20.89973
G1 X95.239 Y147.511 E20.91201
G1 X95.088 Y147.191 E20.92378
G1 X94.74 Y146.358 E20.95381
G1 X94.454 Y145.453 E20.98538
G1 X94.406 Y145.272 E20.9916
G1 X94.213 Y144.389 E21.02167
G1 X94.099 Y143.493 E21.05171
G1 X94.066 Y142.815 E21.07428
G1 X94.053 Y141.877 E21.10548
G1 X94.056 Y132.556 E21.4155
G1 X94.041 Y127.283 E21.59088
G1 X94.051 Y114.398 E22.01944
G1 X94.056 Y113.77 E22.04033
G1 X94.09 Y111.384 E22.1197
G1 X94.09 Y108.747 E22.2074
G1 X94.062 Y107.407 E22.25198
G1 X94.028 Y106.176 E22.29294
G1 X94.007 Y104.807 E22.33848
G1 X94.007 Y103.874 E22.36951
G1 X94.037 Y95.498 E22.6481
G1 X94.038 Y91.668 E22.77549
G1 X94.048 Y90.989 E22.79807
G1 X94.101 Y90.087 E22.82812
G1 X94.234 Y89.194 E22.85815
G1 X94.445 Y88.316 E22.88819
G1 X94.734 Y87.46 E22.91824
G1 X95.096 Y86.633 E22.94826
G1 X95.531 Y85.841 E22.97832
G1 X96.033 Y85.091 E23.00833
G1 X96.601 Y84.388 E23.03839
G1 F1500 E16.53839
;MESH:cam_holder.stl
G0 F6000 X112.532 Y106.303
G0 X111.63 Y105.149
G0 X113.314 Y104.91
G0 X125.453 Y104.921
G0 X126.102 Y105.026
G0 X127.106 Y105.662
G0 X127.569 Y106.335
G0 X127.747 Y106.9
G0 X127.789 Y107.327
G0 X127.774 Y126.034
G0 X128.583 Y127.846
G0 X128.893 Y128.284
G0 X130.028 Y128.949
;TYPE:WALL-INNER
G1 F1500 E23.03839
G1 F1200 X130.591 Y128.885 E23.05724
G1 X131.092 Y128.66 E23.07551
G1 X131.408 Y128.409 E23.08893
G1 X131.47 Y128.338 E23.09206
G1 X131.713 Y128.012 E23.10559
G1 X131.923 Y127.347 E23.12878
G1 X131.952 Y127.203 E23.13367
G1 X131.857 Y126.554 E23.15548
G1 X131.819 Y126.435 E23.15964
G1 X131.543 Y125.931 E23.17875
G1 X131.107 Y125.543 E23.19816
G1 X130.581 Y125.306 E23.21735
G1 X129.956 Y125.256 E23.2382
G1 X129.358 Y125.394 E23.25862
G1 X128.965 Y125.636 E23.27397
G1 X128.584 Y126.032 E23.29224
G1 X128.323 Y126.56 E23.31183
G1 X128.26 Y127.35 E23.33819
G1 X128.437 Y127.918 E23.35798
G1 X128.778 Y128.402 E23.37767
G1 X129.417 Y128.817 E23.40302
G1 X129.544 Y128.856 E23.40743
G1 X130.028 Y128.949 E23.42383
G0 F6000 X130.044 Y128.545
;TYPE:WALL-OUTER
G1 F1200 X130.484 Y128.495 E23.43855
G1 X130.882 Y128.316 E23.45307
G1 X131.131 Y128.118 E23.46365
G1 X131.159 Y128.086 E23.46506
G1 X131.352 Y127.827 E23.47581
G1 X131.535 Y127.247 E23.49604
G1 X131.546 Y127.192 E23.4979
G1 X131.466 Y126.644 E23.51632
G1 X131.45 Y126.594 E23.51807
G1 X131.225 Y126.184 E23.53362
G1 X130.887 Y125.882 E23.5487
G1 X130.48 Y125.699 E23.56354
G1 X129.986 Y125.66 E23.58002
G1 X129.512 Y125.769 E23.5962
