;FLAVOR:Marlin
;TIME:3827
;Filament used: 2.32165m
;Layer height: 0.2
;MINX:93.453
;MINY:69.541
;MINZ:0.2
;MAXX:150.428
;MAXY:175.957
;MAXZ:15
;Generated with Cura_SteamEngine 4.12.1
M140 S60
M105
M190 S60
M104 S200
M105
M109 S200
M82 ;absolute extrusion mode
M201 X500.00 Y500.00 Z100.00 E5000.00 ;Setup machine max acceleration
M203 X500.00 Y500.00 Z10.00 E50.00 ;Setup machine max feedrate
M204 P500.00 R1000.00 T500.00 ;Setup Print/Retract/Travel acceleration
M205 X8.00 Y8.00 Z0.40 E5.00 ;Setup Jerk
M220 S100 ;Reset Feedrate
M221 S100 ;Reset Flowrate

G28 ;Home

G92 E0 ;Reset Extruder
G1 Z2.0 F3000 ;Move Z Axis up
G1 X10.1 Y20 Z0.28 F5000.0 ;Move to start position
G1 X10.1 Y200.0 Z0.28 F1500.0 E15 ;Draw the first line
G1 X10.4 Y200.0 Z0.28 F5000.0 ;Move to side a little
G1 X10.4 Y20 Z0.28 F1500.0 E30 ;Draw the second line
G92 E0 ;Reset Extruder
G1 Z2.0 F3000 ;Move Z Axis up

G92 E0
G92 E0
G1 F1500 E-6.5
;LAYER_COUNT:75
;LAYER:0
M107
G0 F6000 X117.49 Y148.387 Z0.2
;TYPE:SKIRT
G1 F1500 E0
G1 F1200 X118.231 Y147.812 E0.0312
G1 X119.018 Y147.302 E0.06239
G1 X119.846 Y146.861 E0.09359
G1 X120.708 Y146.492 E0.12478
G1 X121.599 Y146.198 E0.15598
G1 X122.511 Y145.98 E0.18717
G1 X123.885 Y145.803 E0.23325
G1 X124.069 Y145.791 E0.23938
G1 X124.641 Y145.769 E0.25842
G1 X125.474 Y145.759 E0.28613
G1 X137.641 Y145.759 E0.6908
G1 X138.625 Y145.768 E0.72353
G1 X139.588 Y145.782 E0.75556
G1 X140.524 Y145.836 E0.78675
G1 X141.453 Y145.969 E0.81796
G1 X142.366 Y146.181 E0.84914
G1 X143.259 Y146.47 E0.88035
G1 X144.123 Y146.833 E0.91152
G1 X144.953 Y147.269 E0.94271
G1 X145.743 Y147.775 E0.97391
G1 X146.488 Y148.345 E1.00511
G1 X147.181 Y148.977 E1.0363
G1 X147.817 Y149.666 E1.06749
G1 X148.393 Y150.407 E1.09871
G1 X148.903 Y151.193 E1.12987
G1 X149.345 Y152.021 E1.16109
G1 X149.714 Y152.883 E1.19227
G1 X150.009 Y153.773 E1.22346
G1 X150.227 Y154.685 E1.25465
G1 X150.366 Y155.613 E1.28586
G1 X150.428 Y156.795 E1.32523
G1 X150.426 Y157.725 E1.35616
G1 X150.378 Y160.692 E1.45485
G1 X150.356 Y161.409 E1.47871
G1 X150.287 Y162.345 E1.50993
G1 X150.139 Y163.271 E1.54112
G1 X149.913 Y164.181 E1.5723
G1 X149.609 Y165.068 E1.60349
G1 X149.232 Y165.927 E1.63469
G1 X148.782 Y166.75 E1.66589
G1 X148.264 Y167.532 E1.69709
G1 X147.682 Y168.267 E1.72827
G1 X147.039 Y168.95 E1.75947
G1 X146.34 Y169.575 E1.79066
G1 X145.59 Y170.138 E1.82185
G1 X144.795 Y170.636 E1.85305
G1 X143.984 Y171.053 E1.88338
G1 X143.794 Y171.141 E1.89034
G1 X142.927 Y171.499 E1.92154
G1 X142.455 Y171.658 E1.93811
G1 X142.276 Y171.714 E1.94435
G1 X141.947 Y171.812 E1.95576
G1 X140.912 Y172.099 E1.99149
G1 X128.093 Y175.442 E2.43211
G1 X127.478 Y175.593 E2.45317
G1 X126.939 Y175.711 E2.47152
G1 X126.685 Y175.76 E2.48013
G1 X125.757 Y175.898 E2.51133
G1 X124.821 Y175.957 E2.54252
G1 X123.883 Y175.936 E2.57373
G1 X122.951 Y175.835 E2.60491
G1 X122.031 Y175.654 E2.6361
G1 X121.129 Y175.397 E2.66729
G1 X120.252 Y175.063 E2.6985
G1 X119.407 Y174.656 E2.7297
G1 X118.6 Y174.178 E2.76089
G1 X117.837 Y173.633 E2.79208
G1 X117.122 Y173.026 E2.82328
G1 X116.462 Y172.359 E2.85448
G1 X115.862 Y171.639 E2.88566
G1 X115.324 Y170.87 E2.91687
G1 X114.855 Y170.059 E2.94803
G1 X114.456 Y169.21 E2.97923
G1 X114.13 Y168.33 E3.01045
G1 X113.881 Y167.426 E3.04163
G1 X113.71 Y166.504 E3.07282
G1 X113.602 Y165.112 E3.11926
G1 X113.591 Y164.24 E3.14826
G1 X113.592 Y157.28 E3.37975
G1 X113.602 Y156.615 E3.40187
G1 X113.656 Y155.678 E3.43309
G1 X113.79 Y154.75 E3.46428
G1 X114.002 Y153.836 E3.49548
G1 X114.291 Y152.944 E3.52667
G1 X114.656 Y152.08 E3.55787
G1 X115.092 Y151.25 E3.58905
G1 X115.598 Y150.46 E3.62025
G1 X116.169 Y149.716 E3.65144
G1 X116.801 Y149.023 E3.68264
G1 X117.49 Y148.387 E3.71383
G0 F6000 X117.879 Y148.584
G1 F1200 X118.615 Y148.032 E3.74443
G1 X119.397 Y147.545 E3.77507
G1 X120.218 Y147.129 E3.80568
G1 X121.072 Y146.785 E3.8363
G1 X121.952 Y146.516 E3.86691
G1 X122.853 Y146.325 E3.89754
G1 X123.911 Y146.202 E3.93297
G1 X124.095 Y146.19 E3.9391
G1 X124.647 Y146.169 E3.95747
G1 X125.474 Y146.159 E3.98498
G1 X137.637 Y146.159 E4.38952
G1 X138.619 Y146.168 E4.42219
G1 X139.582 Y146.182 E4.45422
G1 X140.501 Y146.235 E4.48484
G1 X141.412 Y146.368 E4.51546
G1 X142.308 Y146.58 E4.54608
G1 X143.183 Y146.868 E4.57672
G1 X144.029 Y147.231 E4.60734
G1 X144.84 Y147.667 E4.63796
G1 X145.61 Y148.171 E4.66857
G1 X146.334 Y148.74 E4.6992
G1 X147.006 Y149.369 E4.72981
G1 X147.62 Y150.055 E4.76043
G1 X148.173 Y150.791 E4.79105
G1 X148.66 Y151.572 E4.82167
G1 X149.077 Y152.393 E4.85229
G1 X149.421 Y153.247 E4.88291
G1 X149.69 Y154.127 E4.91352
G1 X149.882 Y155.028 E4.94416
G1 X149.995 Y155.942 E4.97479
G1 X150.028 Y156.795 E5.00318
G1 X150.026 Y157.718 E5.03388
G1 X149.982 Y160.521 E5.12712
G1 X149.956 Y161.397 E5.15627
G1 X149.888 Y162.315 E5.18689
G1 X149.74 Y163.224 E5.21752
G1 X149.514 Y164.116 E5.24813
G1 X149.212 Y164.986 E5.27876
G1 X148.835 Y165.826 E5.30938
G1 X148.387 Y166.63 E5.33999
G1 X147.871 Y167.392 E5.3706
G1 X147.29 Y168.107 E5.40124
G1 X146.65 Y168.768 E5.43184
G1 X145.954 Y169.372 E5.46249
G1 X145.209 Y169.913 E5.49312
G1 X144.42 Y170.387 E5.52373
G1 X143.816 Y170.69 E5.54621
G1 X143.626 Y170.778 E5.55317
G1 X142.774 Y171.129 E5.58382
G1 X142.336 Y171.276 E5.59918
G1 X142.157 Y171.332 E5.60542
G1 X141.839 Y171.426 E5.61645
G1 X140.811 Y171.712 E5.65194
G1 X128.146 Y175.016 E6.08728
G1 X127.383 Y175.204 E6.11342
G1 X126.863 Y175.318 E6.13112
G1 X126.609 Y175.367 E6.13973
G1 X125.698 Y175.502 E6.17036
G1 X124.779 Y175.558 E6.20098
G1 X123.859 Y175.533 E6.23159
G1 X122.944 Y175.429 E6.26222
G1 X122.042 Y175.245 E6.29284
G1 X121.159 Y174.985 E6.32345
G1 X120.302 Y174.648 E6.35408
G1 X119.477 Y174.239 E6.38471
G1 X118.692 Y173.759 E6.41531
G1 X117.95 Y173.213 E6.44595
G1 X117.259 Y172.605 E6.47656
G1 X116.623 Y171.939 E6.50719
G1 X116.048 Y171.22 E6.53781
G1 X115.537 Y170.455 E6.56841
G1 X115.094 Y169.647 E6.59906
G1 X114.723 Y168.805 E6.62966
G1 X114.427 Y167.933 E6.66029
G1 X114.207 Y167.039 E6.69091
G1 X114.066 Y166.129 E6.72154
G1 X114.002 Y165.106 E6.75563
G1 X113.991 Y164.24 E6.78444
G1 X113.992 Y157.286 E7.01573
G1 X114.002 Y156.621 E7.03785
G1 X114.056 Y155.702 E7.06847
G1 X114.189 Y154.791 E7.09909
G1 X114.401 Y153.895 E7.12971
G1 X114.69 Y153.02 E7.16036
G1 X115.054 Y152.175 E7.19097
G1 X115.489 Y151.364 E7.22157
G1 X115.994 Y150.593 E7.25223
G1 X116.563 Y149.87 E7.28283
G1 X117.193 Y149.198 E7.31347
G1 X117.879 Y148.584 E7.34409
G0 F6000 X118.266 Y148.785
G1 F1200 X118.998 Y148.256 E7.37413
G1 X119.774 Y147.794 E7.40416
G1 X120.588 Y147.403 E7.4342
G1 X121.433 Y147.084 E7.46424
G1 X122.303 Y146.842 E7.49428
G1 X123.191 Y146.678 E7.52431
G1 X123.937 Y146.602 E7.54925
G1 X124.121 Y146.59 E7.55538
G1 X124.652 Y146.569 E7.57306
G1 X125.474 Y146.559 E7.6004
G1 X137.634 Y146.559 E8.00484
G1 X138.613 Y146.568 E8.03741
G1 X139.576 Y146.582 E8.06944
G1 X140.478 Y146.635 E8.09949
G1 X141.371 Y146.768 E8.12952
G1 X142.249 Y146.979 E8.15955
G1 X143.105 Y147.267 E8.18959
G1 X143.932 Y147.629 E8.21962
G1 X144.724 Y148.064 E8.24967
G1 X145.474 Y148.566 E8.27969
G1 X146.177 Y149.133 E8.30973
G1 X146.827 Y149.76 E8.33977
G1 X147.419 Y150.442 E8.3698
G1 X147.949 Y151.174 E8.39986
G1 X148.411 Y151.95 E8.4299
G1 X148.803 Y152.763 E8.45992
G1 X149.122 Y153.608 E8.48996
G1 X149.365 Y154.478 E8.52
G1 X149.529 Y155.366 E8.55004
G1 X149.615 Y156.265 E8.58008
G1 X149.628 Y156.794 E8.59768
G1 X149.626 Y157.712 E8.62821
G1 X149.582 Y160.515 E8.72145
G1 X149.556 Y161.385 E8.7504
G1 X149.489 Y162.285 E8.78041
G1 X149.342 Y163.176 E8.81045
G1 X149.116 Y164.051 E8.84051
G1 X148.815 Y164.902 E8.87053
G1 X148.439 Y165.723 E8.90056
G1 X147.992 Y166.508 E8.93061
G1 X147.477 Y167.25 E8.96065
G1 X146.899 Y167.944 E8.99069
G1 X146.261 Y168.584 E9.02075
G1 X145.57 Y169.165 E9.05077
G1 X144.83 Y169.682 E9.0808
G1 X143.648 Y170.327 E9.12558
G1 X143.458 Y170.415 E9.13255
G1 X142.217 Y170.895 E9.1768
G1 X142.038 Y170.951 E9.18304
G1 X141.732 Y171.041 E9.19365
G1 X140.71 Y171.325 E9.22893
G1 X127.902 Y174.665 E9.66917
G1 X127.287 Y174.816 E9.69024
G1 X126.787 Y174.925 E9.70726
G1 X126.533 Y174.974 E9.71586
G1 X125.64 Y175.106 E9.74588
G1 X124.738 Y175.158 E9.77594
G1 X123.835 Y175.13 E9.80598
G1 X122.939 Y175.023 E9.836
G1 X122.055 Y174.836 E9.86605
G1 X121.191 Y174.572 E9.8961
G1 X120.354 Y174.233 E9.92613
G1 X119.551 Y173.821 E9.95615
G1 X118.787 Y173.34 E9.98618
G1 X118.068 Y172.792 E10.01625
G1 X117.401 Y172.184 E10.04626
G1 X116.79 Y171.519 E10.0763
G1 X116.24 Y170.802 E10.10636
G1 X115.756 Y170.04 E10.13638
G1 X115.342 Y169.237 E10.16643
G1 X115 Y168.402 E10.19644
G1 X114.733 Y167.539 E10.22649
G1 X114.543 Y166.656 E10.25653
G1 X114.432 Y165.76 E10.28656
G1 X114.402 Y165.101 E10.3085
G1 X114.391 Y164.24 E10.33714
G1 X114.392 Y157.292 E10.56823
G1 X114.402 Y156.627 E10.59035
G1 X114.456 Y155.725 E10.6204
G1 X114.589 Y154.832 E10.65043
G1 X114.8 Y153.954 E10.68047
G1 X115.089 Y153.098 E10.71052
G1 X115.452 Y152.271 E10.74055
G1 X115.886 Y151.48 E10.77056
G1 X116.389 Y150.729 E10.80063
G1 X116.957 Y150.027 E10.83066
G1 X117.584 Y149.377 E10.8607
G1 X118.266 Y148.785 E10.89074
G1 F1500 E4.39074
;MESH:arm2.stl
G0 F6000 X124.771 Y156.095
G0 X125.005 Y157.173
G0 X125.191 Y164.211
;TYPE:WALL-INNER
G1 F1500 E10.89074
G1 F1200 X125.191 Y157.359 E11.11863
G1 X137.755 Y157.359 E11.53651
G1 X138.83 Y157.37 E11.57227
G1 X138.777 Y160.664 E11.68184
G1 X138.75 Y160.674 E11.6828
G1 X125.191 Y164.211 E12.14887
G0 F6000 X124.791 Y164.729
;TYPE:WALL-OUTER
G1 F1200 X124.791 Y156.959 E12.4073
G1 X137.759 Y156.959 E12.83862
G1 X138.895 Y156.971 E12.8764
G1 X139.237 Y156.971 E12.88778
G1 X139.173 Y160.948 E13.02007
G1 X138.865 Y161.057 E13.03094
G1 X124.791 Y164.729 E13.51471
G0 F6000 X125.052 Y164.391
G0 X125.301 Y163.706
G0 X125.581 Y163.706
;TYPE:SKIN
G1 F1200 X125.581 Y157.749 E13.71284
G1 X137.751 Y157.749 E14.11762
G1 X138.434 Y157.756 E14.14033
G1 X138.391 Y160.363 E14.22705
G1 X125.581 Y163.706 E14.66739
G0 F6000 X126.074 Y163.409
G1 F1200 X125.74 Y163.075 E14.6831
G0 F6000 X125.74 Y162.51
G1 F1200 X126.523 Y163.292 E14.7199
G0 F6000 X126.971 Y163.175
G1 F1200 X125.74 Y161.944 E14.77781
G0 F6000 X125.74 Y161.378
G1 F1200 X127.419 Y163.058 E14.8568
G0 F6000 X127.868 Y162.941
G1 F1200 X125.74 Y160.813 E14.9569
G0 F6000 X125.74 Y160.247
G1 F1200 X128.317 Y162.824 E15.07811
G0 F6000 X128.766 Y162.707
G1 F1200 X125.74 Y159.681 E15.22045
G0 F6000 X125.74 Y159.115
G1 F1200 X129.214 Y162.59 E15.38388
G0 F6000 X129.662 Y162.472
G1 F1200 X125.74 Y158.55 E15.56836
G0 F6000 X125.74 Y157.984
G1 F1200 X130.111 Y162.355 E15.77395
G0 F6000 X130.56 Y162.238
G1 F1200 X126.229 Y157.908 E15.97765
G0 F6000 X126.795 Y157.908
G1 F1200 X131.009 Y162.121 E16.17584
G0 F6000 X131.457 Y162.004
G1 F1200 X127.361 Y157.908 E16.3685
G0 F6000 X127.926 Y157.908
G1 F1200 X131.906 Y161.887 E16.55568
G0 F6000 X132.354 Y161.77
G1 F1200 X128.492 Y157.908 E16.73734
G0 F6000 X129.058 Y157.908
G1 F1200 X132.803 Y161.653 E16.91349
G0 F6000 X133.252 Y161.536
G1 F1200 X129.623 Y157.908 E17.08417
G0 F6000 X130.189 Y157.908
G1 F1200 X133.7 Y161.419 E17.24931
G0 F6000 X134.149 Y161.302
G1 F1200 X130.755 Y157.908 E17.40896
G0 F6000 X131.321 Y157.908
G1 F1200 X134.597 Y161.184 E17.56305
G0 F6000 X135.046 Y161.068
G1 F1200 X131.886 Y157.908 E17.71169
G0 F6000 X132.452 Y157.908
G1 F1200 X135.495 Y160.95 E17.8548
G0 F6000 X135.943 Y160.833
G1 F1200 X133.018 Y157.908 E17.99238
G0 F6000 X133.583 Y157.908
G1 F1200 X136.392 Y160.716 E18.12448
G0 F6000 X136.84 Y160.599
G1 F1200 X134.149 Y157.908 E18.25106
G0 F6000 X134.715 Y157.908
G1 F1200 X137.289 Y160.482 E18.37213
G0 F6000 X137.738 Y160.365
G1 F1200 X135.28 Y157.908 E18.48773
G0 F6000 X135.846 Y157.908
G1 F1200 X138.186 Y160.248 E18.59779
G0 F6000 X138.242 Y159.738
G1 F1200 X136.412 Y157.908 E18.68387
G0 F6000 X136.977 Y157.908
G1 F1200 X138.251 Y159.181 E18.74377
G0 F6000 X138.26 Y158.625
G1 F1200 X137.543 Y157.908 E18.7775
G0 F6000 X138.112 Y157.911
G1 F1200 X138.27 Y158.069 E18.78493
G0 F6000 X138.62 Y158.075
;MESH:NONMESH
G0 F300 X138.62 Y158.075 Z0.4
G0 F6000 X138.709 Y158.076
G0 X138.601 Y160.528
G0 X125.068 Y164.347
G0 X125.075 Y164.377
;TIME_ELAPSED:37.030382
;LAYER:1
M106 S85
;TYPE:WALL-INNER
;MESH:arm2.stl
G1 F1350 X125.075 Y157.359 E19.01835
G1 X137.777 Y157.359 E19.44082
G1 X138.879 Y157.371 E19.47747
G1 X139.225 Y157.371 E19.48898
G1 X139.228 Y158.53 E19.52753
G1 X139.22 Y160.625 E19.59721
G1 X139.045 Y160.702 E19.60357
G1 X138.767 Y160.805 E19.61343
G1 X125.075 Y164.377 E20.08407
G0 F7500 X124.675 Y164.887
;TYPE:WALL-OUTER
G1 F1350 X124.675 Y156.963 E20.34762
G1 X124.804 Y156.959 E20.35192
G1 X137.781 Y156.959 E20.78353
G1 X138.881 Y156.971 E20.82012
G1 X139.624 Y156.971 E20.84483
G1 X139.628 Y158.532 E20.89675
G1 X139.619 Y160.87 E20.97452
G1 X139.546 Y160.917 E20.9774
G1 X139.193 Y161.074 E20.99025
G1 X138.887 Y161.187 E21.0011
G1 X124.79 Y164.865 E21.48567
G1 X124.675 Y164.887 E21.48956
G0 F7500 X124.936 Y164.557
G0 X125.185 Y163.872
G0 X125.465 Y163.872
;TYPE:SKIN
G1 F1350 X125.465 Y157.749 E21.69321
G1 X137.773 Y157.749 E22.10258
G1 X138.836 Y157.761 E22.13794
G1 X138.838 Y158.528 E22.16345
G1 X138.831 Y160.365 E22.22455
G1 X138.654 Y160.431 E22.23083
G1 X125.465 Y163.872 E22.68418
G0 F7500 X125.185 Y163.872
G0 X125.185 Y158.349
G0 X125.624 Y158.349
G1 F1350 X126.065 Y157.908 E22.70492
G0 F7500 X126.631 Y157.908
G1 F1350 X125.624 Y158.915 E22.75229
G0 F7500 X125.624 Y159.48
G1 F1350 X127.197 Y157.908 E22.82626
G0 F7500 X127.762 Y157.908
G1 F1350 X125.624 Y160.046 E22.92682
G0 F7500 X125.624 Y160.612
G1 F1350 X128.328 Y157.908 E23.05401
G0 F7500 X128.894 Y157.908
G1 F1350 X125.624 Y161.177 E23.2078
G0 F7500 X125.624 Y161.743
G1 F1350 X129.459 Y157.908 E23.38818
G0 F7500 X130.025 Y157.908
G1 F1350 X125.624 Y162.309 E23.59519
G0 F7500 X125.624 Y162.874
G1 F1350 X130.591 Y157.908 E23.8288
G0 F7500 X131.156 Y157.908
G1 F1350 X125.624 Y163.44 E24.08901
G0 F7500 X126.087 Y163.543
G1 F1350 X131.722 Y157.908 E24.35406
G0 F7500 X132.288 Y157.908
G1 F1350 X126.852 Y163.343 E24.60973
G0 F7500 X127.617 Y163.144
G1 F1350 X132.854 Y157.908 E24.85604
G0 F7500 X133.419 Y157.908
G1 F1350 X128.383 Y162.944 E25.09292
G0 F7500 X129.148 Y162.744
G1 F1350 X133.985 Y157.908 E25.32041
G0 F7500 X134.551 Y157.908
G1 F1350 X129.914 Y162.544 E25.5385
G0 F7500 X130.679 Y162.345
G1 F1350 X135.116 Y157.908 E25.7472
G0 F7500 X135.682 Y157.908
G1 F1350 X131.445 Y162.145 E25.9465
G0 F7500 X132.21 Y161.945
G1 F1350 X136.248 Y157.908 E26.13641
G0 F7500 X136.813 Y157.908
G1 F1350 X132.976 Y161.745 E26.31689
G0 F7500 X133.741 Y161.546
G1 F1350 X137.379 Y157.908 E26.48801
G0 F7500 X137.943 Y157.909
G1 F1350 X134.507 Y161.346 E26.64965
G0 F7500 X135.272 Y161.146
G1 F1350 X138.502 Y157.916 E26.80158
G0 F7500 X138.677 Y158.307
G1 F1350 X136.038 Y160.946 E26.92571
G0 F7500 X136.803 Y160.747
G1 F1350 X138.676 Y158.874 E27.01381
G0 F7500 X138.674 Y159.441
G1 F1350 X137.569 Y160.547 E27.06581
G0 F7500 X138.334 Y160.347
G1 F1350 X138.672 Y160.009 E27.08171
G0 F7500 X139.023 Y160.011
;MESH:NONMESH
G0 F300 X139.023 Y160.011 Z0.6
G0 F7500 X139.112 Y160.011
G0 X139.044 Y160.51
G0 X124.975 Y164.551
G0 X124.936 Y164.551
;TIME_ELAPSED:51.297442
;LAYER:2
M106 S170
;TYPE:WALL-INNER
;MESH:arm2.stl
G1 F1500 X124.935 Y157.359 E27.32092
G1 X137.799 Y157.36 E27.74878
G1 X138.865 Y157.371 E27.78423
G1 X139.494 Y157.371 E27.80515
G1 X139.495 Y158.469 E27.84167
G1 X139.506 Y160.597 E27.91245
G1 X139.15 Y160.789 E27.9259
G1 X138.776 Y160.94 E27.93932
G1 X124.936 Y164.551 E28.41505
G0 F9000 X124.536 Y165.049
;TYPE:WALL-OUTER
